lib/brands/icons/ubuntu.svg

<svg xmlns="http://www.w3.org/2000/svg" fill="none" aria-hidden="true" viewBox="0 0 48 48"><g id="ubuntu-Icon"><g id="Group"><path id="Vector" fill="#DD4814" d="M42 23.9999C42 33.9405 33.9412 41.9995 24.0001 41.9995C14.0587 41.9995 6 33.9405 6 23.9999C6 14.0588 14.0588 6 24.0001 6C33.9413 6 42 14.0588 42 23.9999Z"/><path id="Vector_2" fill="white" d="M11.7606 21.5962C10.4327 21.5962 9.35693 22.6721 9.35693 23.9999C9.35693 25.3271 10.4327 26.4029 11.7606 26.4029C13.0878 26.4029 14.1636 25.3271 14.1636 23.9999C14.1636 22.6721 13.0878 21.5962 11.7606 21.5962ZM28.9192 32.5187C27.7697 33.1826 27.3756 34.6515 28.0396 35.8004C28.7028 36.9498 30.1717 37.3438 31.3212 36.6799C32.4705 36.0168 32.8647 34.5478 32.2008 33.3983C31.5376 32.2495 30.0678 31.8555 28.9192 32.5187ZM16.9806 23.9999C16.9806 21.625 18.1603 19.5269 19.9653 18.2563L18.2083 15.3136C16.1057 16.7191 14.5413 18.8668 13.8912 21.3821C14.6498 22.0012 15.1353 22.9435 15.1353 23.9998C15.1353 25.0555 14.6498 25.9979 13.8912 26.6169C14.5404 29.133 16.1049 31.2807 18.2083 32.6862L19.9653 29.7428C18.1603 28.473 16.9806 26.3749 16.9806 23.9999ZM24.0001 16.9798C27.6672 16.9798 30.6758 19.7915 30.9916 23.3772L34.416 23.3267C34.2475 20.6795 33.091 18.303 31.3141 16.5555C30.4003 16.9007 29.3449 16.8479 28.4326 16.322C27.5187 15.7947 26.9457 14.905 26.7891 13.9393C25.9009 13.6942 24.9662 13.56 23.9998 13.56C22.3386 13.56 20.7679 13.9502 19.3733 14.6404L21.0432 17.6328C21.9415 17.2147 22.9436 16.9798 24.0001 16.9798ZM24.0001 31.0193C22.9436 31.0193 21.9415 30.7843 21.0433 30.3663L19.3734 33.3586C20.768 34.0497 22.3387 34.44 24.0001 34.44C24.9664 34.44 25.9011 34.3057 26.7892 34.0598C26.9458 33.0941 27.519 32.2053 28.4327 31.677C29.3456 31.1503 30.4004 31.0984 31.3142 31.4436C33.0912 29.6961 34.2476 27.3196 34.4161 24.6724L30.9909 24.6219C30.6758 28.2086 27.6673 31.0193 24.0001 31.0193ZM28.9183 15.4797C30.0678 16.1435 31.5369 15.7503 32.2 14.6009C32.8639 13.4514 32.4708 11.9823 31.3212 11.3183C30.1717 10.6552 28.7028 11.0492 28.0387 12.1986C27.3756 13.3475 27.7696 14.8165 28.9183 15.4797Z"/></g></g></svg>

<svg xmlns="http://www.w3.org/2000/svg" fill="none" aria-hidden="true" viewBox="0 0 48 48"><path fill="#DD4814" d="M42 24c0 9.94-8.059 18-18 18S6 33.94 6 24c0-9.941 8.059-18 18-18s18 8.059 18 18Z"/><path fill="#fff" d="M11.76 21.596a2.403 2.403 0 1 0 0 4.807 2.403 2.403 0 0 0 0-4.807ZM28.92 32.52a2.402 2.402 0 1 0 2.4 4.16 2.402 2.402 0 0 0-2.4-4.16ZM16.98 24a7.01 7.01 0 0 1 2.985-5.743l-1.757-2.942a10.462 10.462 0 0 0-4.317 6.068A3.37 3.37 0 0 1 15.135 24a3.37 3.37 0 0 1-1.244 2.617 10.454 10.454 0 0 0 4.317 6.07l1.757-2.944A7.008 7.008 0 0 1 16.981 24ZM24 16.98a7.02 7.02 0 0 1 6.992 6.398l3.424-.05a10.408 10.408 0 0 0-3.102-6.772 3.37 3.37 0 0 1-2.881-.233 3.364 3.364 0 0 1-1.644-2.383A10.47 10.47 0 0 0 24 13.56c-1.66 0-3.231.39-4.626 1.08l1.67 2.993A6.99 6.99 0 0 1 24 16.98Zm0 14.04a6.991 6.991 0 0 1-2.957-.653l-1.67 2.993a10.436 10.436 0 0 0 7.416.701 3.367 3.367 0 0 1 1.644-2.383 3.367 3.367 0 0 1 2.881-.233 10.407 10.407 0 0 0 3.102-6.772l-3.425-.05A7.018 7.018 0 0 1 24 31.019Zm4.918-15.54a2.402 2.402 0 1 0 2.403-4.162 2.402 2.402 0 0 0-2.403 4.163Z"/></svg>
